flaticon/interaction/archive-7.svg

<svg xmlns="http://www.w3.org/2000/svg" width="32" height="32" viewBox="0 0 24 24">
    <path d="M22 18.867188C21.828125 17.222656 20.457031 15.933594 18.820312 15.933594 17.792969 15.933594 16.824219 16.449219 16.226562 17.292969 16.109375 17.273438 15.992188 17.261719 15.875 17.261719 14.945312 17.261719 14.121094 17.894531 13.847656 18.789062 13.085938 19.242188 12.601562 20.085938 12.601562 20.988281 12.601562 22.390625 13.714844 23.53125 15.082031 23.53125L19.394531 23.53125C19.417969 23.53125 19.4375 23.53125 19.46875 23.53125 19.492188 23.53125 19.515625 23.53125 19.539062 23.53125L21.261719 23.53125C22.550781 23.53125 23.601562 22.457031 23.601562 21.136719 23.601562 20.097656 22.941406 19.1875 22 18.867188zM21.261719 22.734375L19.519531 22.730469 19.453125 22.730469 15.082031 22.734375C14.15625 22.734375 13.398438 21.953125 13.398438 20.988281 13.398438 20.324219 13.777344 19.707031 14.367188 19.414062L14.539062 19.332031 14.582031 19.140625C14.714844 18.515625 15.257812 18.0625 15.871094 18.0625 16.011719 18.0625 16.148438 18.085938 16.28125 18.132812L16.589844 18.234375 16.753906 17.953125C17.1875 17.199219 17.976562 16.734375 18.816406 16.734375 20.125 16.734375 21.199219 17.832031 21.21875 19.183594L21.222656 19.507812 21.542969 19.570312C22.269531 19.710938 22.800781 20.371094 22.800781 21.136719 22.800781 22.015625 22.109375 22.734375 21.261719 22.734375zM9.003906 7.199219L13.398438 7.199219C14.171875 7.199219 14.800781 6.570312 14.800781 5.796875L14.800781 5.199219C14.800781 4.980469 14.621094 4.800781 14.398438 4.800781 14.179688 4.800781 14 4.980469 14 5.199219L14 5.796875C14 6.128906 13.730469 6.398438 13.398438 6.398438L9.003906 6.398438C8.671875 6.398438 8.398438 6.128906 8.398438 5.796875L8.398438 5.199219C8.398438 4.980469 8.222656 4.800781 8 4.800781 7.777344 4.800781 7.601562 4.980469 7.601562 5.199219L7.601562 5.796875C7.601562 6.570312 8.230469 7.199219 9.003906 7.199219zM12 18L9.003906 18C8.671875 18 8.398438 17.730469 8.398438 17.398438L8.398438 16.800781C8.398438 16.578125 8.222656 16.398438 8 16.398438 7.777344 16.398438 7.601562 16.578125 7.601562 16.800781L7.601562 17.398438C7.601562 18.171875 8.230469 18.800781 9.003906 18.800781L12 18.800781C12.222656 18.800781 12.398438 18.621094 12.398438 18.398438 12.398438 18.179688 12.222656 18 12 18zM12 18"/>
    <path d="M 10.398438 23.199219 L 1.53125 23.199219 C 1.347656 23.199219 1.199219 23.050781 1.199219 22.867188 L 1.199219 12.398438 L 21.199219 12.398438 L 21.199219 15.230469 C 21.199219 15.449219 21.378906 15.628906 21.601562 15.628906 C 21.820312 15.628906 22 15.449219 22 15.230469 L 22 1.132812 C 22 0.507812 21.492188 0 20.867188 0 L 1.53125 0 C 0.910156 0 0.398438 0.507812 0.398438 1.132812 L 0.398438 22.867188 C 0.398438 23.492188 0.910156 24 1.53125 24 L 10.398438 24 C 10.621094 24 10.800781 23.820312 10.800781 23.601562 C 10.800781 23.378906 10.621094 23.199219 10.398438 23.199219 Z M 1.53125 0.800781 L 20.867188 0.800781 C 21.050781 0.800781 21.199219 0.949219 21.199219 1.132812 L 21.199219 11.601562 L 1.199219 11.601562 L 1.199219 1.132812 C 1.199219 0.949219 1.347656 0.800781 1.53125 0.800781 Z M 1.53125 0.800781"/>
</svg>

<svg xmlns="http://www.w3.org/2000/svg" width="32" height="32" viewBox="0 0 24 24">
    <path d="M22 18.867c-.172-1.644-1.543-2.933-3.18-2.933a3.197 3.197 0 0 0-2.593 1.359 2.138 2.138 0 0 0-.352-.031c-.93 0-1.754.633-2.027 1.527a2.574 2.574 0 0 0-1.246 2.2c0 1.402 1.113 2.542 2.48 2.542h6.18c1.289 0 2.34-1.074 2.34-2.394 0-1.04-.66-1.95-1.602-2.27zm-.738 3.867l-1.742-.004h-.067l-4.371.004c-.926 0-1.684-.78-1.684-1.746 0-.664.38-1.281.97-1.574l.171-.082.043-.191c.133-.625.676-1.078 1.29-1.078.14 0 .276.023.41.07l.308.101.164-.28a2.396 2.396 0 0 1 2.062-1.22c1.309 0 2.383 1.098 2.403 2.45l.004.324.32.062c.727.14 1.258.801 1.258 1.567 0 .879-.692 1.597-1.54 1.597zm0 0M9.004 7.2h4.394c.774 0 1.403-.63 1.403-1.403v-.598a.401.401 0 0 0-.801 0v.598c0 .332-.27.601-.602.601H9.004a.605.605 0 0 1-.606-.601v-.598a.398.398 0 1 0-.796 0v.598c0 .773.628 1.402 1.402 1.402zm0 0M12 18H9.004a.605.605 0 0 1-.606-.602v-.597a.398.398 0 1 0-.796 0v.597c0 .774.628 1.403 1.402 1.403H12c.223 0 .398-.18.398-.403A.398.398 0 0 0 12 18zm0 0"/>
    <path d="M10.398 23.2H1.531a.332.332 0 0 1-.332-.333V12.398h20v2.832a.401.401 0 0 0 .801 0V1.133C22 .508 21.492 0 20.867 0H1.531C.911 0 .398.508.398 1.133v21.734C.398 23.492.91 24 1.531 24h8.867a.401.401 0 1 0 0-.8zM1.531.8h19.336c.184 0 .332.15.332.333v10.469h-20V1.132c0-.183.149-.331.332-.331zm0 0"/>
</svg>
